src/img/icons/icon-linkedin.svg

<?xml version="1.0" encoding="UTF-8"?>
<svg width="36px" height="36px" viewBox="0 0 36 36" version="1.1" xmlns="http://www.w3.org/2000/svg" xmlns:xlink="http://www.w3.org/1999/xlink">
    <!-- Generator: sketchtool 53.2 (72643) - https://sketchapp.com -->
    <title>3D062210-FBAE-4DB9-8A53-896C3F7B60D9</title>
    <desc>Created with sketchtool.</desc>
    <g id="Header-&amp;-Footer" stroke="none" stroke-width="1" fill="none" fill-rule="evenodd">
        <g id="Footer/footer-desktop-1280" transform="translate(-50.000000, -261.000000)">
            <g id="icon/social/ico-social-linkedin-ghost" transform="translate(50.000000, 261.000000)">
                <path d="M18,35.5 C27.6646576,35.5 35.5,27.6646576 35.5,18 C35.5,8.33495217 27.6648674,0.5 18,0.5 C8.33513257,0.5 0.5,8.33495217 0.5,18 C0.5,27.6646576 8.33534237,35.5 18,35.5 Z" id="Path" stroke="#4489FF" stroke-width="1"></path>
                <path d="M28.1022,26.4822 L28.1022,19.455 C28.1022,15.69 26.0922,13.938 23.4126,13.938 C21.2502,13.938 20.2812,15.1278 19.7412,15.9624 L19.7412,14.226 L15.6672,14.226 C15.7212,15.3762 15.6672,26.4822 15.6672,26.4822 L19.7412,26.4822 L19.7412,19.6374 C19.7412,19.272 19.7676,18.906 19.8756,18.6444 C20.1696,17.9124 20.8398,17.1546 21.9648,17.1546 C23.4396,17.1546 24.0288,18.2784 24.0288,19.9254 L24.0288,26.4828 L28.1022,26.4828 L28.1022,26.4822 Z" id="Path" fill="#4489FF" fill-rule="evenodd"></path>
                <path d="M11.3754,12.5532 C12.7956,12.5532 13.6806,11.6112 13.6806,10.4346 C13.6542,9.2328 12.7956,8.3178 11.4024,8.3178 C10.0092,8.3178 9.0978,9.2322 9.0978,10.4346 C9.0978,11.6112 9.9822,12.5532 11.3496,12.5532 L11.3754,12.5532 Z" id="Path" fill="#4489FF" fill-rule="evenodd"></path>
                <polygon id="Path" fill="#4489FF" fill-rule="evenodd" points="13.4124 26.4822 13.4124 14.226 9.339 14.226 9.339 26.4822"></polygon>
            </g>
        </g>
    </g>
</svg>

<svg width="36" height="36" xmlns="http://www.w3.org/2000/svg"><g fill="none" fill-rule="evenodd"><path d="M18 35.5c9.665 0 17.5-7.835 17.5-17.5S27.665.5 18 .5.5 8.335.5 18 8.335 35.5 18 35.5z" stroke="#4489FF"/><path d="M28.102 26.482v-7.027c0-3.765-2.01-5.517-4.69-5.517-2.162 0-3.13 1.19-3.67 2.024v-1.736h-4.075c.054 1.15 0 12.256 0 12.256h4.074v-6.845c0-.365.027-.731.135-.993.294-.732.964-1.49 2.089-1.49 1.475 0 2.064 1.124 2.064 2.771v6.558h4.073zM11.375 12.553c1.42 0 2.306-.942 2.306-2.118-.027-1.202-.885-2.117-2.279-2.117-1.393 0-2.304.914-2.304 2.117 0 1.176.884 2.118 2.252 2.118h.025zM13.412 26.482V14.226H9.34v12.256z" fill="#4489FF"/></g></svg>
